Origami/16x16/apps/tortoisehg.svg

<svg width="16" height="16" version="1" xmlns="http://www.w3.org/2000/svg">
 <path d="m8 1c-1.108 0-2 0.892-2 2v3 5c0 1.108 0.892 2 2 2s2-0.892 2-2v-5-3c0-1.108-0.892-2-2-2zm2 5a2 2 0 0 0 2 2 2 2 0 0 0 2 -2 2 2 0 0 0 -2 -2 2 2 0 0 0 -2 2zm-4 0a2 2 0 0 0 -2 -2 2 2 0 0 0 -2 2 2 2 0 0 0 2 2 2 2 0 0 0 2 -2zm-2 5a2 2 0 0 0 -2 2 2 2 0 0 0 2 2 2 2 0 0 0 2 -2 2 2 0 0 0 -2 -2zm8 0a2 2 0 0 0 -2 2 2 2 0 0 0 2 2 2 2 0 0 0 2 -2 2 2 0 0 0 -2 -2z" style="fill:#2d5a37"/>
 <rect transform="matrix(0,-1,-1,0,0,0)" x="-15" y="-13" width="11" height="10" rx="5.5" ry="5" style="fill:#6d7481"/>
</svg>

<svg xmlns="http://www.w3.org/2000/svg" width="16" height="16" version="1">
 <path style="fill:#2d5a37" d="M 8 1 C 6.892 1 6 1.892 6 3 L 6 6 L 6 11 C 6 12.108 6.892 13 8 13 C 9.108 13 10 12.108 10 11 L 10 6 L 10 3 C 10 1.892 9.108 1 8 1 z M 10 6 A 2 2 0 0 0 12 8 A 2 2 0 0 0 14 6 A 2 2 0 0 0 12 4 A 2 2 0 0 0 10 6 z M 6 6 A 2 2 0 0 0 4 4 A 2 2 0 0 0 2 6 A 2 2 0 0 0 4 8 A 2 2 0 0 0 6 6 z M 4 11 A 2 2 0 0 0 2 13 A 2 2 0 0 0 4 15 A 2 2 0 0 0 6 13 A 2 2 0 0 0 4 11 z M 12 11 A 2 2 0 0 0 10 13 A 2 2 0 0 0 12 15 A 2 2 0 0 0 14 13 A 2 2 0 0 0 12 11 z"/>
 <rect style="fill:#6d7481" width="11" height="10" x="-15" y="-13" rx="5.5" ry="5" transform="matrix(0,-1,-1,0,0,0)"/>
</svg>
